tools/download-figma-icons/icons/outlined-large/power-plug.svg

<svg width="64" height="64" viewBox="0 0 64 64" fill="none" xmlns="http://www.w3.org/2000/svg">
<path fill-rule="evenodd" clip-rule="evenodd" d="M22.3803 36.1987V41.0847C22.3803 46.3886 26.6952 50.7036 32.0002 50.7036C37.3041 50.7036 41.6191 46.3886 41.6191 41.0847V36.1987H22.3803ZM45.5001 27.1988V33.1987H18.5003V27.1988H45.5001ZM32.0002 0C49.645 0 63.9999 14.3559 63.9999 31.9998C63.9999 44.8127 56.394 56.3556 44.6211 61.4135C44.6201 61.4145 44.6191 61.4145 44.6171 61.4145C44.6151 61.4155 44.6133 61.4165 44.6116 61.4175C44.6098 61.4185 44.6081 61.4195 44.6061 61.4205C44.6011 61.4225 44.5961 61.4235 44.5911 61.4255C43.2991 61.9915 41.9431 62.2795 40.5601 62.2795C35.4852 62.2795 31.2872 58.5066 30.5952 53.6206C24.2962 52.9186 19.3803 47.5666 19.3803 41.0847V36.1987H17.0003C16.1713 36.1987 15.5003 35.5267 15.5003 34.6987V25.6988C15.5003 24.8708 16.1713 24.1988 17.0003 24.1988H22.5003V12.7089C22.5003 11.8809 23.1712 11.2089 24.0002 11.2089C24.8282 11.2089 25.5002 11.8809 25.5002 12.7089V24.1988H38.5001V12.7089C38.5001 11.8809 39.1711 11.2089 40.0001 11.2089C40.8281 11.2089 41.5001 11.8809 41.5001 12.7089V24.1988H47.0001C47.8281 24.1988 48.5001 24.8708 48.5001 25.6988V34.6987C48.5001 35.5267 47.8281 36.1987 47.0001 36.1987H44.6191V41.0847C44.6191 47.4916 39.8141 52.7876 33.6212 53.5876C34.2672 56.8286 37.1311 59.2795 40.5601 59.2795C41.5331 59.2795 42.4921 59.0745 43.4081 58.6696L43.4091 58.6706C43.4141 58.6686 43.4181 58.6645 43.4231 58.6626C54.101 54.0826 61 43.6167 61 31.9998C61 16.0099 47.9901 2.99998 32.0002 2.99998C16.0093 2.99998 3.0004 16.0099 3.0004 31.9998C3.0004 39.3307 5.74138 46.3276 10.7193 51.7006C11.2823 52.3086 11.2463 53.2576 10.6383 53.8206C10.0313 54.3846 9.08136 54.3486 8.51836 53.7396C3.0254 47.8106 0.000427243 40.0897 0.000427243 31.9998C0.000427243 14.3559 14.3553 0 32.0002 0ZM31.9989 41.9672C33.1589 41.9672 34.0979 42.9072 34.0979 44.0652C34.0979 45.2242 33.1589 46.1641 31.9989 46.1641C30.8409 46.1641 29.9009 45.2242 29.9009 44.0652C29.9009 42.9072 30.8409 41.9672 31.9989 41.9672Z" fill="black"/>
</svg>

<svg xmlns="http://www.w3.org/2000/svg" width="64" height="64" fill="none" viewBox="0 0 64 64"><path fill="currentColor" fill-rule="evenodd" d="M22.38 36.199v4.886c0 5.304 4.315 9.619 9.62 9.619s9.62-4.315 9.62-9.62V36.2zm23.12-9v6h-27v-6zM32 0c17.645 0 32 14.356 32 32a31.98 31.98 0 0 1-19.38 29.414h-.004l-.005.003-.006.003-.015.005a10 10 0 0 1-4.03.855c-5.076 0-9.274-3.773-9.966-8.66-6.299-.701-11.215-6.053-11.215-12.535v-4.886H17a1.5 1.5 0 0 1-1.5-1.5v-9a1.5 1.5 0 0 1 1.5-1.5h5.5v-11.49a1.5 1.5 0 1 1 3 0v11.49h13v-11.49a1.5 1.5 0 1 1 3 0v11.49H47a1.5 1.5 0 0 1 1.5 1.5v9a1.5 1.5 0 0 1-1.5 1.5h-2.38v4.886c0 6.407-4.806 11.703-10.999 12.503.646 3.24 3.51 5.691 6.94 5.691a7 7 0 0 0 2.847-.61l.001.002.014-.008A28.98 28.98 0 0 0 61 32C61 16.01 47.99 3 32 3S3 16.01 3 32c0 7.33 2.741 14.328 7.72 19.7a1.5 1.5 0 1 1-2.202 2.04A31.9 31.9 0 0 1 0 32C0 14.356 14.355 0 32 0m0 41.967a2.098 2.098 0 1 1 0 4.197 2.098 2.098 0 0 1-.001-4.197" clip-rule="evenodd"/></svg>
